icons/circle/48/sdl-ball.svg

<svg version="1.1" viewBox="0 0 48 48" xmlns="http://www.w3.org/2000/svg">
 <defs>
  <linearGradient id="linearGradient3764" x1="1" x2="47" gradientTransform="matrix(0 -1 1 0 -1.5e-6 48)" gradientUnits="userSpaceOnUse">
   <stop style="stop-color:#e4e4e4" offset="0"/>
   <stop style="stop-color:#eee" offset="1"/>
  </linearGradient>
  <linearGradient id="linearGradient3902-6" x2="0" y1="18" y2="40" gradientTransform="matrix(.70692 -.70724 .70692 .70724 -6.8652 21.416)" gradientUnits="userSpaceOnUse">
   <stop style="stop-color:#e30909" offset="0"/>
   <stop style="stop-color:#f2b0b0" offset="1"/>
  </linearGradient>
  <radialGradient id="radialGradient3910-1" cx="21.781" cy="17.703" r="7" gradientUnits="userSpaceOnUse">
   <stop style="stop-color:#e2e2e2" offset="0"/>
   <stop style="stop-color:#84b0b0" offset="1"/>
  </radialGradient>
 </defs>
 <path d="m36.31 5c5.859 4.062 9.688 10.831 9.688 18.5 0 12.426-10.07 22.5-22.5 22.5-7.669 0-14.438-3.828-18.5-9.688 1.037 1.822 2.306 3.499 3.781 4.969 4.085 3.712 9.514 5.969 15.469 5.969 12.703 0 23-10.298 23-23 0-5.954-2.256-11.384-5.969-15.469-1.469-1.475-3.147-2.744-4.969-3.781zm4.969 3.781c3.854 4.113 6.219 9.637 6.219 15.719 0 12.703-10.297 23-23 23-6.081 0-11.606-2.364-15.719-6.219 4.16 4.144 9.883 6.719 16.219 6.719 12.703 0 23-10.298 23-23 0-6.335-2.575-12.06-6.719-16.219z" style="opacity:.05"/>
 <path d="m41.28 8.781c3.712 4.085 5.969 9.514 5.969 15.469 0 12.703-10.297 23-23 23-5.954 0-11.384-2.256-15.469-5.969 4.113 3.854 9.637 6.219 15.719 6.219 12.703 0 23-10.298 23-23 0-6.081-2.364-11.606-6.219-15.719z" style="opacity:.1"/>
 <path d="m31.25 2.375c8.615 3.154 14.75 11.417 14.75 21.13 0 12.426-10.07 22.5-22.5 22.5-9.708 0-17.971-6.135-21.12-14.75a23 23 0 0 0 44.875 -7 23 23 0 0 0 -16 -21.875z" style="opacity:.2"/>
 <path d="m24 1c12.703 0 23 10.297 23 23s-10.297 23-23 23-23-10.297-23-23 10.297-23 23-23z" style="fill:url(#linearGradient3764)"/>
 <path d="m40.03 7.531c3.712 4.084 5.969 9.514 5.969 15.469 0 12.703-10.297 23-23 23-5.954 0-11.384-2.256-15.469-5.969 4.178 4.291 10.01 6.969 16.469 6.969 12.703 0 23-10.298 23-23 0-6.462-2.677-12.291-6.969-16.469z" style="opacity:.1"/>
 <g transform="translate(4.0645e-6 .0023799)">
  <path d="m21 13c-2.047 0-4.095 0.781-5.656 2.344-3.123 3.125-3.123 8.188 0 11.313 0 0 18.4 12.744 21.25 9.938 2.85-2.807-9.938-21.25-9.938-21.25-1.562-1.562-3.609-2.344-5.656-2.344z" style="opacity:.1"/>
  <path d="m35.586 35.596c-2.85 2.807-21.243-9.946-21.243-9.946l11.307-11.306s12.785 18.446 9.936 21.253z" style="fill:url(#linearGradient3902-6)"/>
  <path transform="translate(-4.0645e-6 -.0023799)" d="m20.998 13.002c-2.0468 0-4.0946 0.78136-5.6562 2.3438-2.9575 2.9588-3.1101 7.6551-0.4668 10.799 0.64886 0.54275 1.3619 0.97056 2.1133 1.2754 0.001344 5.45e-4 0.002562 0.001409 0.003907 0.001953 0.60895 0.3995 1.317 0.85618 2.0762 1.3379 2.6317 0.65254 5.529-0.039828 7.5859-2.0977 2.0629-2.0638 2.7539-4.9744 2.0918-7.6133-0.48786-0.76853-0.94956-1.4795-1.3516-2.0918-0.30262-0.73636-0.72103-1.4352-1.252-2.0723-1.4841-1.2516-3.3126-1.8828-5.1445-1.8828z" style="opacity:.05"/>
  <path transform="matrix(.80791 -.80827 .80791 .80827 -13.934 21.618)" d="m29 20c0 3.866-3.134 7-7 7s-7-3.134-7-7 3.134-7 7-7 7 3.134 7 7z" style="fill:url(#radialGradient3910-1)"/>
 </g>
</svg>

<svg viewBox="0 0 48 48" xmlns="http://www.w3.org/2000/svg">
  <defs>
    <linearGradient id="a" x1="1" x2="47" gradientTransform="rotate(-90 24 24)" gradientUnits="userSpaceOnUse">
      <stop offset="0" stop-color="#e4e4e4"/>
      <stop offset="1" stop-color="#eee"/>
    </linearGradient>
    <linearGradient id="b" x2="0" y1="18" y2="40" gradientTransform="matrix(.70692 -.70724 .70692 .70724 -6.865 21.416)" gradientUnits="userSpaceOnUse">
      <stop offset="0" stop-color="#e30909"/>
      <stop offset="1" stop-color="#f2b0b0"/>
    </linearGradient>
    <radialGradient id="c" cx="21.781" cy="17.703" r="7" gradientUnits="userSpaceOnUse">
      <stop offset="0" stop-color="#e2e2e2"/>
      <stop offset="1" stop-color="#84b0b0"/>
    </radialGradient>
  </defs>
  <path d="M36.31 5c5.859 4.062 9.688 10.831 9.688 18.5 0 12.426-10.07 22.5-22.5 22.5-7.669 0-14.438-3.828-18.5-9.688a23.24 23.24 0 0 0 3.781 4.969 22.923 22.923 0 0 0 15.469 5.969c12.703 0 23-10.298 23-23a22.92 22.92 0 0 0-5.969-15.469A23.216 23.216 0 0 0 36.31 5zm4.969 3.781A22.911 22.911 0 0 1 47.498 24.5c0 12.703-10.297 23-23 23a22.909 22.909 0 0 1-15.719-6.219C12.939 45.425 18.662 48 24.998 48c12.703 0 23-10.298 23-23 0-6.335-2.575-12.06-6.719-16.219z" opacity=".05"/>
  <path d="M41.28 8.781a22.923 22.923 0 0 1 5.969 15.469c0 12.703-10.297 23-23 23A22.92 22.92 0 0 1 8.78 41.281 22.911 22.911 0 0 0 24.499 47.5c12.703 0 23-10.298 23-23A22.909 22.909 0 0 0 41.28 8.781z" opacity=".1"/>
  <path d="M31.25 2.375C39.865 5.529 46 13.792 46 23.505c0 12.426-10.07 22.5-22.5 22.5-9.708 0-17.971-6.135-21.12-14.75a23 23 0 0 0 44.875-7 23 23 0 0 0-16-21.875z" opacity=".2"/>
  <path d="M24 1c12.703 0 23 10.297 23 23S36.703 47 24 47 1 36.703 1 24 11.297 1 24 1z" fill="url(#a)"/>
  <path d="M40.03 7.531A22.922 22.922 0 0 1 45.999 23c0 12.703-10.297 23-23 23A22.92 22.92 0 0 1 7.53 40.031C11.708 44.322 17.54 47 23.999 47c12.703 0 23-10.298 23-23 0-6.462-2.677-12.291-6.969-16.469z" opacity=".1"/>
  <path d="M21 13.002a8.001 8.001 0 0 0-5.656 13.657s18.4 12.744 21.25 9.938c2.85-2.807-9.938-21.25-9.938-21.25A7.975 7.975 0 0 0 21 13.003z" opacity=".1"/>
  <path d="M35.586 35.596c-2.85 2.807-21.243-9.946-21.243-9.946L25.65 14.344s12.785 18.446 9.936 21.253z" fill="url(#b)" transform="translate(0 .002)"/>
  <path d="M20.998 13.002a7.973 7.973 0 0 0-5.656 2.344c-2.958 2.959-3.11 7.655-.467 10.799a7.96 7.96 0 0 0 2.113 1.275l.004.002c.61.4 1.317.856 2.076 1.338 2.632.653 5.53-.04 7.586-2.098 2.063-2.063 2.754-4.974 2.092-7.613-.488-.768-.95-1.48-1.351-2.092a7.963 7.963 0 0 0-1.252-2.072 7.967 7.967 0 0 0-5.145-1.883z" opacity=".05"/>
  <path transform="matrix(.80791 -.80827 .80791 .80827 -13.934 21.62)" d="M29 20a7 7 0 1 1-14 0 7 7 0 0 1 14 0z" fill="url(#c)"/>
</svg>
